!!!OTL: 136. Freylekhs
!!!Genre:	Freylekhs
!!!Mode:	Minor
!!!Listening/dance:	dance
!!!One_Mode:	no
**kern
*I"P1
*clefG2
*k[b-e-]
*g:
*M2/4
*>A
!LO:TX:a:i:t=G-minor
=1
(16b-LL
16ddJ)
8cc'J
4b-
=2
(16b-LL
16ddJ)
8cc'J
4b-
=3
(16b-LL
16ddJ)
8cc'J
(16b-LL
16ddJ)
8cc'J
=4
(8qcc/
8b-L)
8aJ
4g
*>bM
*B-:
!LO:TX:a:i:t=Bb-major
=5
(16gLL
16ccJJ)
4cc
8cc
=6
8ccL
16ddL
16ccJJ
8b-L
8aJ
*>bM1
=7
4b-
4dd
=8
4ff
4bb-
*>bM2
=9:|!
2g
=10
2g
=11!|:
*>eM
*g:
*>B
!LO:TX:a:i:t=G-minor
(16ddLL
16ee-J
8ddJ)
8ccL
8b-J
=12
(16b-LL
16ddJ)
8cc'J
4cc
=13
8ccL
16ddL
16ccJJ
8b-L
8aJ
=14
(16aLL
16ccJ)
8b-J
4b-
=15
8g
4g
8a
=16
8b-
4b-
8cc
=17
8ddL
8ee-J
8ddL
8ccJ
*>B1
=18
4dd
4gg
*>B2
=19:|!
2g
==
*-
